modules/themify-icons/icons/loop.svg

<?xml version="1.0" encoding="utf-8"?>
<!-- Generated by IcoMoon.io -->
<!DOCTYPE svg PUBLIC "-//W3C//DTD SVG 1.1//EN" "http://www.w3.org/Graphics/SVG/1.1/DTD/svg11.dtd">
<svg version="1.1" xmlns="http://www.w3.org/2000/svg" xmlns:xlink="http://www.w3.org/1999/xlink" width="17" height="17" viewBox="0 0 17 17">
<g>
</g>
	<path d="M1 9c0 2.206 1.711 4 3.813 4v1c-2.654 0-4.813-2.243-4.813-5s2.159-5 4.813-5h4.229l-1.646-1.646 0.707-0.707 2.854 2.853-2.853 2.854-0.708-0.708 1.647-1.646h-4.23c-2.102 0-3.813 1.794-3.813 4zM12.187 4v1c2.102 0 3.813 1.794 3.813 4s-1.711 4-3.813 4h-4.23l1.646-1.646-0.707-0.707-2.853 2.853 2.854 2.854 0.707-0.707-1.647-1.647h4.229c2.655 0 4.814-2.243 4.814-5s-2.159-5-4.813-5z" fill="#000000" />
</svg>

<svg xmlns="http://www.w3.org/2000/svg" width="17" height="17"><path d="M1 9c0 2.206 1.711 4 3.813 4v1C2.159 14 0 11.757 0 9s2.159-5 4.813-5h4.229L7.396 2.354l.707-.707L10.957 4.5 8.104 7.354l-.708-.708L9.043 5h-4.23C2.711 5 1 6.794 1 9zm11.187-5v1C14.289 5 16 6.794 16 9s-1.711 4-3.813 4h-4.23l1.646-1.646-.707-.707L6.043 13.5l2.854 2.854.707-.707L7.957 14h4.229C14.841 14 17 11.757 17 9s-2.159-5-4.813-5z"/></svg>
